X: 16759
T: Hare's Paw, The
R: reel
M: 4/4
K: Gmajor
|:~G3B A2GA|BE~E2 GED2|GFGA BABd|1 (3efg fg edBA:|2 (3efg fg ~e3f||
g2fg edBc|d2 ed Bd d2|g2fg edBd|(3efg fg ~e3f|
g2fg edBc|d2 ed Bd d2|e3f edBd|(3efg fa gedB||

